!!!OTL: 270. Herr von Ninive.
!!!ARE: Europa, Mitteleuropa, Deutschland, Siegburg bei Bonn
!!!SCT: K2270A
!!!TXL: @@DE
!!!YEM: Copyright 1995, estate of Helmut Schaffrath.
**kern	**text	**text	**text	**text	**text	**text	**text
*clefG2	*	*	*	*	*	*	*
!! Mixed meters:  6/8; 2/4
*M6/8	*	*	*	*	*	*	*
*k[f#]	*	*	*	*	*	*	*
*G:	*	*	*	*	*	*	*
{8d	I. Es	I._Sie	I._Wir	I._Wir	I._Wir	I._Wir	I._Das
=1	=1	=1	=1	=1	=1	=1	=1
8g	kom-	wol-	wolln'	wol-	wol-	wol-	ſoll
8g	-men	-len	.	-len	.	-len	.
8g	drei	die	ſie	ſie	-len	ihr	der
8f#	Her-	jüng-	in	ſtri-	ihr	ei-	N.
8f#	-ren	-ſte	.	-cken	.	.	.
8f#	aus	Toch-	ein	und	ein	-nen	N.
=2	=2	=2	=2	=2	=2	=2	=2
4g	Ni-	-ter	Klo-	näh-	Briefchen	Mann	Schul-
8d	-ni-	hab'n.	-ſter	-hen	.	ge-	-ʒe
4d}	-ve.	.	thun.	lern'.	ſchreib'n.	-ben.	ſein.
{8d	Juchhei-	Juchhei-	Juchhei-	Juchhei-	Juchhei-	Juchhei-	Juchhei-
=3	=3	=3	=3	=3	=3	=3	=3
4e	.	.	.	.	.	.	.
8e	-ſa	-ſa	-ſa	-ſa	-ſa	-ſa	-ſa
4f#	vi-	vi-	vi-	vi-	vi-	vi-	vi-
8f#	-vi-	-vi-	-vi-	-vi-	-vi-	-vi-	-vi-
=4	=4	=4	=4	=4	=4	=4	=4
4.g	-la-	-la-	-la-	-la-	-la-	-la-	-la-
4g}	-tus!	-tus!	-tus!	-tus!	-tus!	-tus!	-tus!
{8d	II._Was	II._Was	II._Was	II.	II._Was	II._Was	.
=5	=5	=5	=5	=5	=5	=5	=5
8g	wol-	wollt'	ſoll	Stri-	ſoll	ſoll	.
8g	-len	ihr	.	.	.	.	.
8g	die	mit	ſie	-cken	denn	das	.
8f#	Her-	der	in	und	in	für	.
8f#	-ren	jüng-	.	nä-	.	.	.
8f#	aus	-ſten	dem	-hen	dem	ein	.
=6	=6	=6	=6	=6	=6	=6	=6
4g	ni-	Tochter	Klo-	kann	Briefchen	Mann	.
8d	-ni	.	-ſter	ſie	.	wohl	.
4d}	-ve?	thun?	thun?	ſchon.	ſteh'n.	ſein?	.
{8d	Juchei-	Juchhei-	Juchhei-	Juchhei-	Juchhei-	Juchhei-	.
=7	=7	=7	=7	=7	=7	=7	=7
4e	.	.	.	.	.	.	.
8e	-ſa	-ſa	-ſa	-ſa	-ſa	-ſa	.
4f#	vi-	vi-	vi-	vi-	vi-	vi-	.
8f#	-vi-	-vi-	-vi-	-vi-	-vi-	-vi-	.
=8	=8	=8	=8	=8	=8	=8	=8
4.g	-la-	-la-	-la-	-la-	-la-	-la-	.
4g}	-tus!	-tus!	-tus!	-tus!	-tus!	-tus!	.
{8d	Wir	.	.	.	.	.	.
=9	=9	=9	=9	=9	=9	=9	=9
*M2/4	*	*	*	*	*	*	*
8g	ha-	.	.	.	.	.	.
8f#	-ben	.	.	.	.	.	.
8e	ei-	.	.	.	.	.	.
8d	-ne	.	.	.	.	.	.
=10	=10	=10	=10	=10	=10	=10	=10
4d	Braut	.	.	.	.	.	.
8r}	.	.	.	.	.	.	.
{8d	wir	.	.	.	.	.	.
=11	=11	=11	=11	=11	=11	=11	=11
8g	ha-	.	.	.	.	.	.
8f#	-ben	.	.	.	.	.	.
8e	ei-	.	.	.	.	.	.
8d	-ne	.	.	.	.	.	.
=12	=12	=12	=12	=12	=12	=12	=12
4d	Braut,	.	.	.	.	.	.
8r}	.	.	.	.	.	.	.
{8d	die	.	.	.	.	.	.
=13	=13	=13	=13	=13	=13	=13	=13
4e	Hoch-	.	.	.	.	.	.
4e	-ʒeit	.	.	.	.	.	.
=14	=14	=14	=14	=14	=14	=14	=14
4f#	iſt	.	.	.	.	.	.
4f#	ge-	.	.	.	.	.	.
=15	=15	=15	=15	=15	=15	=15	=15
2g	-ſchloſ-	.	.	.	.	.	.
=16	=16	=16	=16	=16	=16	=16	=16
4g	-ſen.	.	.	.	.	.	.
8r}	.	.	.	.	.	.	.
==	==	==	==	==	==	==	==
!!!AGN: Kinder - Lied, Reigen, Tanz - Spiel, Brautwerbung
!!!ONB: ESAC (Essen Associative Code) Database: KINDER
!!!AMT: irregular
!!!AIN: vox
!!!EED: Helmut Schaffrath
!!!EEV: 1.0
!!!GTL: Zweites Buch. Kinderspiel: 2. Reigen und Tanzspiele. / G. Gegenueberstehende Reihen.
!!!URL-scan: https://archive.org/details/DeutschesKinderliedUndKinderspiel/page/509/mode/1up
!!!ENC: Anna Maria Matuszewska
!!!EEV: 2024/05/09
*-	*-	*-	*-	*-	*-	*-	*-
